resources/haticons/SVG/unity1.svg

<!-- Generated by IcoMoon.io -->
<svg version="1.1" xmlns="http://www.w3.org/2000/svg" width="24" height="24" viewBox="0 0 24 24">
<title>unity1</title>
<path d="M19.9 19.2l-4.3-7.2 4.3-7.2 2.1 7.2zM10.4 18.5l-5.4-5.3h8.6l4.3 7.2zM10.4 5.4l7.5-1.9-4.3 7.2h-8.7c0 0.1 5.5-5.3 5.5-5.3zM21.4 0l-9.8 2.5-1.5 2.5h-2.9l-7.2 7 7.2 7h2.9l1.4 2.5 9.8 2.5 2.6-9.5-1.4-2.5 1.5-2.5z"></path>
</svg>

<svg xmlns="http://www.w3.org/2000/svg" width="24" height="24"><path d="M19.9 19.2L15.6 12l4.3-7.2L22 12zm-9.5-.7L5 13.2h8.6l4.3 7.2zm0-13.1l7.5-1.9-4.3 7.2H4.9c0 .1 5.5-5.3 5.5-5.3zm11-5.4l-9.8 2.5L10.1 5H7.2L0 12l7.2 7h2.9l1.4 2.5 9.8 2.5 2.6-9.5-1.4-2.5L24 9.5z"/></svg>
